**kern	**kern	**dynam
*part1	*part1	*part1
*staff2	*staff1	*
*I"Piano	*	*
*clefF4	*clefG2	*
*k[f#c#g#d#]	*k[f#c#g#d#]	*
=1	=1	=1
*^	*	*
*tremolo	*	*	*
*	*	*tremolo	*
8A 8BL	8BBL	8d# 8f#L	.
8A 8B	8BB	8d# 8f#	.
8A 8B	8BB	8d# 8f#	.
8A 8BJ	8BBJ	8d# 8f#J	.
*	*	*Xtremolo	*
*Xtremolo	*	*	*
=	=	=	=
8.BBBL 8.BB	8.A 8.B	8.d#L 8.f#	.
16BBJk	16A 16B	16d#Jk 16f#	.
8BBL	8A 8B	8d#L 8f#	.
8BBJ	8A 8B	8d#J 8f#	.
=	=	=	=
8.EEL 8.BB	8.G# 8.B	8.eL 8.g#	.
*v	*v	*	*
16BBJk	16G#Jk< 16B<	.
*^	*	*
8BBL	8G#L 8B	4ryy	.
8BBJ	8G#J 8B	.	.
*v	*v	*	*
=	=	=
8.EL 8.B 8.e	8.g#L 8.gg#	ff
16EK 16B	16g#K 16ff#	.
8E 8B	8g# 8ee	.
8EJ 8B 8d#	8f#J 8b	.
=	=	=
*	*^	*
8EL 8B	4g#	4e	.
8E 8B	.	.	.
8E 8B	4b	4d# 4f#	.
8EJ 8B	.	.	.
*	*v	*v	*
=	=	=
8.EL 8.B 8.e	8.g#L 8.gg#	.
16EK 16B	16g#K 16ff#	.
8E 8B	8g# 8ee	.
8EJ 8B 8d#	8f#J 8b	.
=	=	=
*	*^	*
8EL 8B	4g#	4e	.
8E 8B	.	.	.
8E 8B	4b	4d# 4f#	.
8EJ 8B	.	.	.
*	*v	*v	*
=	=	=
*-	*-	*-
!!!system-decoration: {(s1,s2)}
!!!RDF**kern: < = below
